X:185
T: Rathgar Bus
S: Darley & McCall Collection (#37, gan ainm)
Z: B.Black
L: 1/8
M: 4/4
R: reel
K: G
gf|edBA G2 GA|Bdef g2 fg|edBA GABc|dedB A2 gf|
edBA G2 GA|Bdef g2 fg|edBA GABd|edBA A2 ||
ag|eaab a2 gf|eaaf g2 fg|eaga bage|dedB A2 ag|
eaab a2 gf|eaaf g2 bg|afge gfec|Bdef g2 ||
